app-zendesk/assets/logo.svg

<?xml version="1.0" encoding="UTF-8"?>
<svg width="89px" height="49px" viewBox="0 0 89 49" version="1.1" xmlns="http://www.w3.org/2000/svg" xmlns:xlink="http://www.w3.org/1999/xlink">
    <!-- Generator: Sketch 48.2 (47327) - http://www.bohemiancoding.com/sketch -->
    <title>Group 7</title>
    <desc>Created with Sketch.</desc>
    <defs></defs>
    <g id="8-Logo" stroke="none" stroke-width="1" fill="none" fill-rule="evenodd" transform="translate(-45.000000, -103.000000)">
        <g id="Group-7" transform="translate(45.000000, 103.000000)">
            <path d="M52.545,36.4443 C49.847,36.4443 48.113,38.5063 48.113,41.2493 C48.113,43.9693 49.847,46.0533 52.545,46.0533 C55.244,46.0533 56.999,43.9693 56.999,41.2493 C56.999,38.5063 55.244,36.4443 52.545,36.4443 M52.545,33.6793 C56.977,33.6793 60.201,36.8393 60.201,41.2493 C60.201,45.6583 56.977,48.8183 52.545,48.8183 C48.135,48.8183 44.911,45.6583 44.911,41.2493 C44.911,36.8393 48.135,33.6793 52.545,33.6793" id="Fill-1" fill="#2B2B2B"></path>
            <path d="M68.1006,36.664 L64.8316,36.664 L64.8316,40.613 L68.1006,40.613 C69.3506,40.613 70.2946,39.867 70.2946,38.638 C70.2946,37.41 69.3506,36.664 68.1006,36.664 Z M67.1136,43.355 L64.8316,43.355 L64.8316,48.555 L61.7166,48.555 L61.7166,33.921 L68.5616,33.921 C71.6106,33.921 73.4756,35.918 73.4756,38.638 C73.4756,41.227 71.8526,42.609 70.2726,42.982 L73.5636,48.555 L69.9876,48.555 L67.1136,43.355 Z" id="Fill-3" fill="#2B2B2B"></path>
            <path d="M82.23,33.6797 C85.279,33.6797 87.188,35.2167 88.285,36.9497 L85.696,38.3527 C85.038,37.3217 83.788,36.4447 82.23,36.4447 C79.576,36.4447 77.645,38.4847 77.645,41.2487 C77.645,44.0127 79.576,46.0537 82.23,46.0537 C83.524,46.0537 84.753,45.4837 85.346,44.9347 L85.346,43.1797 L81.484,43.1797 L81.484,40.4597 L88.46,40.4597 L88.46,46.0757 C86.969,47.7427 84.884,48.8397 82.23,48.8397 C77.952,48.8397 74.442,45.8557 74.442,41.2487 C74.442,36.6197 77.952,33.6797 82.23,33.6797" id="Fill-5" fill="#2B2B2B"></path>
            <polygon id="Fill-10" fill="#DA211D" points="28.325 14.6705 31.44 14.6705 31.44 0.0375 28.325 0.0375"></polygon>
            <polygon id="Fill-11" fill="#DA211D" points="34.117 14.6705 37.232 14.6705 37.232 0.0375 34.117 0.0375"></polygon>
            <path d="M1.6895,27.1806 C2.7205,28.2566 4.3215,29.1556 6.3405,29.1556 C8.0515,29.1556 8.8845,28.3656 8.8845,27.5316 C8.8845,26.4566 7.5245,26.1496 5.9235,25.7546 C3.5325,25.2066 0.4605,24.5486 0.4605,21.2136 C0.4605,18.7786 2.5665,16.7606 6.0115,16.7606 C8.3365,16.7606 10.2675,17.4616 11.7155,18.8006 L9.9825,21.0826 C8.7975,19.9856 7.2175,19.4806 5.7265,19.4806 C4.3875,19.4806 3.6415,20.0736 3.6415,20.9506 C3.6415,21.8936 4.9805,22.2006 6.5595,22.5736 C8.9735,23.1446 12.0445,23.8676 12.0445,27.1806 C12.0445,29.8576 10.1355,31.8756 6.1865,31.8756 C3.3785,31.8756 1.3605,30.9326 0.0005,29.5506 L1.6895,27.1806 Z" id="Fill-12" fill="#DA211D"></path>
            <polygon id="Fill-13" fill="#DA211D" points="22.7735 21.5644 20.2285 31.6124 16.9155 31.6124 12.7255 16.9794 16.2135 16.9794 18.7805 27.5534 21.5665 16.9794 24.0025 16.9794 26.7655 27.5534 29.3105 16.9794 32.8205 16.9794 28.6525 31.6124 25.3395 31.6124"></polygon>
            <polygon id="Fill-14" fill="#DA211D" points="34.293 31.6125 37.408 31.6125 37.408 16.9795 34.293 16.9795"></polygon>
            <path d="M40.3477,27.1806 C41.3787,28.2566 42.9807,29.1556 44.9987,29.1556 C46.7097,29.1556 47.5437,28.3656 47.5437,27.5316 C47.5437,26.4566 46.1827,26.1496 44.5817,25.7546 C42.1907,25.2066 39.1187,24.5486 39.1187,21.2136 C39.1187,18.7786 41.2247,16.7606 44.6697,16.7606 C46.9947,16.7606 48.9257,17.4616 50.3737,18.8006 L48.6407,21.0826 C47.4557,19.9856 45.8757,19.4806 44.3847,19.4806 C43.0457,19.4806 42.2997,20.0736 42.2997,20.9506 C42.2997,21.8936 43.6387,22.2006 45.2177,22.5736 C47.6317,23.1446 50.7027,23.8676 50.7027,27.1806 C50.7027,29.8576 48.7937,31.8756 44.8447,31.8756 C42.0367,31.8756 40.0187,30.9326 38.6587,29.5506 L40.3477,27.1806 Z" id="Fill-15" fill="#DA211D"></path>
            <path d="M52.8536,27.1806 C53.8846,28.2566 55.4856,29.1556 57.5046,29.1556 C59.2156,29.1556 60.0486,28.3656 60.0486,27.5316 C60.0486,26.4566 58.6886,26.1496 57.0876,25.7546 C54.6966,25.2066 51.6246,24.5486 51.6246,21.2136 C51.6246,18.7786 53.7306,16.7606 57.1746,16.7606 C59.5006,16.7606 61.4316,17.4616 62.8796,18.8006 L61.1456,21.0826 C59.9616,19.9856 58.3816,19.4806 56.8906,19.4806 C55.5516,19.4806 54.8056,20.0736 54.8056,20.9506 C54.8056,21.8936 56.1446,22.2006 57.7236,22.5736 C60.1366,23.1446 63.2086,23.8676 63.2086,27.1806 C63.2086,29.8576 61.2996,31.8756 57.3506,31.8756 C54.5426,31.8756 52.5246,30.9326 51.1646,29.5506 L52.8536,27.1806 Z" id="Fill-16" fill="#DA211D"></path>
            <path d="M21.3477,46.0976 C27.3367,41.6876 29.0927,40.1736 29.0927,38.3746 C29.0927,37.1026 27.9297,36.4666 26.7227,36.4666 C25.0557,36.4666 23.7827,37.1236 22.7957,38.1566 L21.0187,36.0936 C22.4447,34.4476 24.6167,33.7026 26.6567,33.7026 C29.7717,33.7026 32.2517,35.4566 32.2517,38.3746 C32.2517,40.8756 30.1887,43.0476 26.3937,45.8126 L32.3607,45.8126 L32.3607,48.5546 L21.3477,48.5546 L21.3477,46.0976 Z" id="Fill-17" fill="#DA211D"></path>
            <polygon id="Fill-18" fill="#DA211D" points="34.179 48.5700073 37.294 48.5700073 37.294 33.9215 34.179 33.9215"></polygon>
            <polygon id="Fill-19" fill="#DA211D" points="22.435 10.0425 25.551 10.0425 25.551 -0.0005 22.435 -0.0005"></polygon>
            <polygon id="Fill-20" fill="#2B2B2B" points="40.597 48.5735 43.726 48.5735 43.726 45.4445 40.597 45.4445"></polygon>
        </g>
    </g>
</svg>

<?xml version="1.0" encoding="UTF-8" standalone="no"?>
<svg
   xmlns:dc="http://purl.org/dc/elements/1.1/"
   xmlns:cc="http://creativecommons.org/ns#"
   xmlns:rdf="http://www.w3.org/1999/02/22-rdf-syntax-ns#"
   xmlns:svg="http://www.w3.org/2000/svg"
   xmlns="http://www.w3.org/2000/svg"
   xmlns:sodipodi="http://sodipodi.sourceforge.net/DTD/sodipodi-0.dtd"
   xmlns:inkscape="http://www.inkscape.org/namespaces/inkscape"
   width="89"
   height="89"
   viewBox="0 0 89 89"
   version="1.1"
   id="svg24"
   sodipodi:docname="logo.svg"
   inkscape:version="0.92.5 (0.92.5+68)"
   inkscape:export-filename="/home/evaleto/nodejs/evaletolab.ch/suisse21-zendesk/public/assets/logo-small.png"
   inkscape:export-xdpi="34.52"
   inkscape:export-ydpi="34.52">
  <metadata
     id="metadata28">
    <rdf:RDF>
      <cc:Work
         rdf:about="">
        <dc:format>image/svg+xml</dc:format>
        <dc:type
           rdf:resource="http://purl.org/dc/dcmitype/StillImage" />
        <dc:title>Group 7</dc:title>
      </cc:Work>
    </rdf:RDF>
  </metadata>
  <sodipodi:namedview
     pagecolor="#ffffff"
     bordercolor="#666666"
     borderopacity="1"
     objecttolerance="10"
     gridtolerance="10"
     guidetolerance="10"
     inkscape:pageopacity="0"
     inkscape:pageshadow="2"
     inkscape:window-width="1591"
     inkscape:window-height="795"
     id="namedview26"
     showgrid="false"
     inkscape:zoom="1"
     inkscape:cx="44.5"
     inkscape:cy="24.5"
     inkscape:window-x="49"
     inkscape:window-y="24"
     inkscape:window-maximized="0"
     inkscape:current-layer="svg24" />
  <!-- Generator: Sketch 48.2 (47327) - http://www.bohemiancoding.com/sketch -->
  <title
     id="title2">Group 7</title>
  <desc
     id="desc4">Created with Sketch.</desc>
  <defs
     id="defs6" />
  <g
     id="8-Logo"
     transform="translate(-45,-83)"
     style="fill:none;fill-rule:evenodd;stroke:none;stroke-width:1">
    <g
       id="Group-7"
       transform="translate(45,103)">
      <path
         d="m 52.545,36.4443 c -2.698,0 -4.432,2.062 -4.432,4.805 0,2.72 1.734,4.804 4.432,4.804 2.699,0 4.454,-2.084 4.454,-4.804 0,-2.743 -1.755,-4.805 -4.454,-4.805 m 0,-2.765 c 4.432,0 7.656,3.16 7.656,7.57 0,4.409 -3.224,7.569 -7.656,7.569 -4.41,0 -7.634,-3.16 -7.634,-7.569 0,-4.41 3.224,-7.57 7.634,-7.57"
         id="Fill-1"
         inkscape:connector-curvature="0"
         style="fill:#2b2b2b" />
      <path
         d="m 68.1006,36.664 h -3.269 v 3.949 h 3.269 c 1.25,0 2.194,-0.746 2.194,-1.975 0,-1.228 -0.944,-1.974 -2.194,-1.974 z m -0.987,6.691 h -2.282 v 5.2 h -3.115 V 33.921 h 6.845 c 3.049,0 4.914,1.997 4.914,4.717 0,2.589 -1.623,3.971 -3.203,4.344 l 3.291,5.573 h -3.576 z"
         id="Fill-3"
         inkscape:connector-curvature="0"
         style="fill:#2b2b2b" />
      <path
         d="m 82.23,33.6797 c 3.049,0 4.958,1.537 6.055,3.27 l -2.589,1.403 c -0.658,-1.031 -1.908,-1.908 -3.466,-1.908 -2.654,0 -4.585,2.04 -4.585,4.804 0,2.764 1.931,4.805 4.585,4.805 1.294,0 2.523,-0.57 3.116,-1.119 v -1.755 h -3.862 v -2.72 h 6.976 v 5.616 c -1.491,1.667 -3.576,2.764 -6.23,2.764 -4.278,0 -7.788,-2.984 -7.788,-7.591 0,-4.629 3.51,-7.569 7.788,-7.569"
         id="Fill-5"
         inkscape:connector-curvature="0"
         style="fill:#2b2b2b" />
      <polygon
         id="Fill-10"
         points="31.44,14.6705 31.44,0.0375 28.325,0.0375 28.325,14.6705 "
         style="fill:#da211d" />
      <polygon
         id="Fill-11"
         points="37.232,14.6705 37.232,0.0375 34.117,0.0375 34.117,14.6705 "
         style="fill:#da211d" />
      <path
         d="m 1.6895,27.1806 c 1.031,1.076 2.632,1.975 4.651,1.975 1.711,0 2.544,-0.79 2.544,-1.624 0,-1.075 -1.36,-1.382 -2.961,-1.777 -2.391,-0.548 -5.463,-1.206 -5.463,-4.541 0,-2.435 2.106,-4.453 5.551,-4.453 2.325,0 4.256,0.701 5.704,2.04 l -1.733,2.282 c -1.185,-1.097 -2.765,-1.602 -4.256,-1.602 -1.339,0 -2.085,0.593 -2.085,1.47 0,0.943 1.339,1.25 2.918,1.623 2.414,0.571 5.485,1.294 5.485,4.607 0,2.677 -1.909,4.695 -5.858,4.695 -2.808,0 -4.826,-0.943 -6.186,-2.325 z"
         id="Fill-12"
         inkscape:connector-curvature="0"
         style="fill:#da211d" />
      <polygon
         id="Fill-13"
         points="18.7805,27.5534 21.5665,16.9794 24.0025,16.9794 26.7655,27.5534 29.3105,16.9794 32.8205,16.9794 28.6525,31.6124 25.3395,31.6124 22.7735,21.5644 20.2285,31.6124 16.9155,31.6124 12.7255,16.9794 16.2135,16.9794 "
         style="fill:#da211d" />
      <polygon
         id="Fill-14"
         points="37.408,31.6125 37.408,16.9795 34.293,16.9795 34.293,31.6125 "
         style="fill:#da211d" />
      <path
         d="m 40.3477,27.1806 c 1.031,1.076 2.633,1.975 4.651,1.975 1.711,0 2.545,-0.79 2.545,-1.624 0,-1.075 -1.361,-1.382 -2.962,-1.777 -2.391,-0.548 -5.463,-1.206 -5.463,-4.541 0,-2.435 2.106,-4.453 5.551,-4.453 2.325,0 4.256,0.701 5.704,2.04 l -1.733,2.282 c -1.185,-1.097 -2.765,-1.602 -4.256,-1.602 -1.339,0 -2.085,0.593 -2.085,1.47 0,0.943 1.339,1.25 2.918,1.623 2.414,0.571 5.485,1.294 5.485,4.607 0,2.677 -1.909,4.695 -5.858,4.695 -2.808,0 -4.826,-0.943 -6.186,-2.325 z"
         id="Fill-15"
         inkscape:connector-curvature="0"
         style="fill:#da211d" />
      <path
         d="m 52.8536,27.1806 c 1.031,1.076 2.632,1.975 4.651,1.975 1.711,0 2.544,-0.79 2.544,-1.624 0,-1.075 -1.36,-1.382 -2.961,-1.777 -2.391,-0.548 -5.463,-1.206 -5.463,-4.541 0,-2.435 2.106,-4.453 5.55,-4.453 2.326,0 4.257,0.701 5.705,2.04 l -1.734,2.282 c -1.184,-1.097 -2.764,-1.602 -4.255,-1.602 -1.339,0 -2.085,0.593 -2.085,1.47 0,0.943 1.339,1.25 2.918,1.623 2.413,0.571 5.485,1.294 5.485,4.607 0,2.677 -1.909,4.695 -5.858,4.695 -2.808,0 -4.826,-0.943 -6.186,-2.325 z"
         id="Fill-16"
         inkscape:connector-curvature="0"
         style="fill:#da211d" />
      <path
         d="m 21.3477,46.0976 c 5.989,-4.41 7.745,-5.924 7.745,-7.723 0,-1.272 -1.163,-1.908 -2.37,-1.908 -1.667,0 -2.94,0.657 -3.927,1.69 l -1.777,-2.063 c 1.426,-1.646 3.598,-2.391 5.638,-2.391 3.115,0 5.595,1.754 5.595,4.672 0,2.501 -2.063,4.673 -5.858,7.438 h 5.967 v 2.742 h -11.013 z"
         id="Fill-17"
         inkscape:connector-curvature="0"
         style="fill:#da211d" />
      <polygon
         id="Fill-18"
         points="37.294,48.570007 37.294,33.9215 34.179,33.9215 34.179,48.570007 "
         style="fill:#da211d" />
      <polygon
         id="Fill-19"
         points="25.551,10.0425 25.551,-0.0005 22.435,-0.0005 22.435,10.0425 "
         style="fill:#da211d" />
      <polygon
         id="Fill-20"
         points="43.726,48.5735 43.726,45.4445 40.597,45.4445 40.597,48.5735 "
         style="fill:#2b2b2b" />
    </g>
  </g>
</svg>
